outputs/icons/navigation/unfold_less_sharp.svg

<svg xmlns="http://www.w3.org/2000/svg" width="1200" height="1200" fill="none"><g clip-path="url(#a)"><path fill="#000" d="m370.495 929.5 71 70.5 158.5-158.5 158.5 158.5 70.5-70.5-229-229.5zm459-659-71-70.5-158.5 158.5-158.5-158.5-71 70.5 229.5 229.5z"/></g><defs><clipPath id="a"><path fill="#fff" d="M0 0h1200v1200H0z"/></clipPath></defs></svg>

<svg width="1200" height="1200" viewBox="0 0 1200 1200" fill="none" xmlns="http://www.w3.org/2000/svg"><g clip-path="url(#clip0_316_1626)"><path d="M370.5 929.5L441.5 1000L600 841.5L758.5 1000L829 929.5L600 700L370.5 929.5ZM829.5 270.5L758.5 200L600 358.5L441.5 200L370.5 270.5L600 500L829.5 270.5Z" fill="#1D1E23"/></g><defs><clipPath id="clip0_316_1626"><path width="24" fill="white" d="M0 0H1200V1200H0V0z"/></clipPath></defs></svg>
